polaris-icons/icons/new-icons/HintMajor.svg

<svg width="20" height="20" viewBox="0 0 20 20" fill="none" xmlns="http://www.w3.org/2000/svg">
<path d="M10 2C10.4142 2 10.75 2.33579 10.75 2.75V3.25C10.75 3.66421 10.4142 4 10 4C9.58579 4 9.25 3.66421 9.25 3.25V2.75C9.25 2.33579 9.58579 2 10 2Z" fill="#4A4A4A"/>
<path d="M5.58059 4.16656C5.2877 3.87367 4.81283 3.87367 4.51993 4.16656C4.22704 4.45945 4.22704 4.93433 4.51993 5.22722L4.87349 5.58077C5.16638 5.87367 5.64125 5.87367 5.93415 5.58077C6.22704 5.28788 6.22704 4.81301 5.93415 4.52011L5.58059 4.16656Z" fill="#4A4A4A"/>
<path d="M2 9.75C2 9.33579 2.33579 9 2.75 9H3.25C3.66421 9 4 9.33579 4 9.75C4 10.1642 3.66421 10.5 3.25 10.5H2.75C2.33579 10.5 2 10.1642 2 9.75Z" fill="#4A4A4A"/>
<path d="M16 9.75C16 9.33579 16.3358 9 16.75 9H17.25C17.6642 9 18 9.33579 18 9.75C18 10.1642 17.6642 10.5 17.25 10.5H16.75C16.3358 10.5 16 10.1642 16 9.75Z" fill="#4A4A4A"/>
<path d="M15.6569 5.40398C15.9497 5.11109 15.9497 4.63621 15.6569 4.34332C15.364 4.05043 14.8891 4.05043 14.5962 4.34332L14.2426 4.69687C13.9497 4.98976 13.9497 5.46464 14.2426 5.75753C14.5355 6.05043 15.0104 6.05043 15.3033 5.75753L15.6569 5.40398Z" fill="#4A4A4A"/>
<path fill-rule="evenodd" clip-rule="evenodd" d="M6.4737 5.99824C8.42123 4.05072 11.5788 4.05072 13.5263 5.99824C14.4753 6.94719 14.9869 8.10141 14.9869 9.29552C14.9869 10.4896 14.4753 11.6438 13.5263 12.5928C13.5085 12.6106 13.4905 12.6282 13.4725 12.6456C12.9997 13.1009 12.75 13.5121 12.75 13.8864V14.9999C12.75 16.3806 11.6307 17.4999 10.25 17.4999H9.75001C8.3693 17.4999 7.25001 16.3806 7.25001 14.9999V13.8864C7.25001 13.5121 7.00032 13.1009 6.52755 12.6456C6.50949 12.6282 6.49154 12.6106 6.4737 12.5928C5.52476 11.6438 5.01306 10.4896 5.01306 9.29552C5.01306 8.10141 5.52476 6.94719 6.4737 5.99824ZM12.4656 7.0589C11.1039 5.69716 8.8961 5.69716 7.53436 7.0589C6.82868 7.76458 6.51306 8.54999 6.51306 9.29552C6.51306 10.041 6.82868 10.8265 7.53436 11.5321C7.54555 11.5433 7.55678 11.5543 7.56805 11.5652C7.93411 11.9177 8.35586 12.4006 8.58345 13H11.4166C11.6442 12.4006 12.0659 11.9177 12.432 11.5652C12.4432 11.5543 12.4545 11.5433 12.4656 11.5321C13.1713 10.8265 13.4869 10.041 13.4869 9.29552C13.4869 8.54999 13.1713 7.76458 12.4656 7.0589ZM11.25 14.5H8.75001V14.9999C8.75001 15.5522 9.19772 15.9999 9.75001 15.9999H10.25C10.8023 15.9999 11.25 15.5522 11.25 14.9999V14.5Z" fill="#4A4A4A"/>
</svg>

<svg viewBox="0 0 20 20" xmlns="http://www.w3.org/2000/svg"><path d="M10 2a.75.75 0 0 1 .75.75v.5a.75.75 0 0 1-1.5 0v-.5a.75.75 0 0 1 .75-.75Z" fill="#5C5F62"/><path d="M5.58 4.167a.75.75 0 0 0-1.06 1.06l.353.354a.75.75 0 1 0 1.061-1.06l-.353-.354Z" fill="#5C5F62"/><path d="M2 9.75a.75.75 0 0 1 .75-.75h.5a.75.75 0 0 1 0 1.5h-.5a.75.75 0 0 1-.75-.75Z" fill="#5C5F62"/><path d="M16 9.75a.75.75 0 0 1 .75-.75h.5a.75.75 0 0 1 0 1.5h-.5a.75.75 0 0 1-.75-.75Z" fill="#5C5F62"/><path d="M15.657 5.404a.75.75 0 0 0-1.06-1.06l-.354.353a.75.75 0 1 0 1.06 1.06l.354-.353Z" fill="#5C5F62"/><path fill-rule="evenodd" d="M6.474 5.998a4.987 4.987 0 0 1 7.052 0c.95.95 1.46 2.103 1.46 3.298 0 1.194-.51 2.348-1.46 3.297a4.45 4.45 0 0 1-.053.053c-.473.455-.723.866-.723 1.24v1.114a2.5 2.5 0 0 1-2.5 2.5h-.5a2.5 2.5 0 0 1-2.5-2.5v-1.114c0-.374-.25-.785-.722-1.24a4.312 4.312 0 0 1-.054-.053c-.95-.95-1.46-2.103-1.46-3.297 0-1.195.51-2.349 1.46-3.298Zm5.992 1.06a3.487 3.487 0 0 0-4.932 0c-.705.707-1.02 1.492-1.02 2.238 0 .745.315 1.53 1.02 2.236l.034.033c.366.353.788.836 1.015 1.435h2.834c.227-.6.649-1.082 1.015-1.435l.034-.033c.705-.706 1.02-1.491 1.02-2.236 0-.746-.315-1.531-1.02-2.237Zm-1.216 7.442h-2.5v.5a1 1 0 0 0 1 1h.5a1 1 0 0 0 1-1v-.5Z" fill="#5C5F62"/></svg>
